usr/share/icons/biglinux-icons-material/22/actions/gnumeric-format-thousand-separator.svg

<svg id="svg6" version="1.1" viewBox="0 0 22 22" xmlns="http://www.w3.org/2000/svg">
    <defs id="defs3051">
        <style id="current-color-scheme" type="text/css">.ColorScheme-Text {
        color:#dedede;
      }</style>
    </defs>
    <path id="path4" class="ColorScheme-Text" d="m6.5 4c-1.932997 0-3.5 1.7909-3.5 4v6c0 2.2091 1.567003 4 3.5 4s3.5-1.7909 3.5-4v-6c0-2.2091-1.567003-4-3.5-4zm9 0c-1.932997 0-3.5 1.7909-3.5 4v6c0 2.2091 1.567003 4 3.5 4s3.5-1.7909 3.5-4v-6c0-2.2091-1.567003-4-3.5-4zm-9 1c1.3807119 0 2.5 1.3431 2.5 3v6c0 1.6569-1.1192881 3-2.5 3s-2.5-1.3431-2.5-3v-6c0-1.6569 1.1192881-3 2.5-3zm9 0c1.380712 0 2.5 1.3431 2.5 3v6c0 1.6569-1.119288 3-2.5 3s-2.5-1.3431-2.5-3v-6c0-1.6569 1.119288-3 2.5-3zm-5.5 12v2h2v-2z" fill="currentColor"/>
</svg>

<svg xmlns="http://www.w3.org/2000/svg" viewBox="0 0 22 22"><path fill="currentColor" d="M6.5 4C4.567 4 3 5.79 3 8v6c0 2.21 1.567 4 3.5 4s3.5-1.79 3.5-4V8c0-2.21-1.567-4-3.5-4zm9 0C13.567 4 12 5.79 12 8v6c0 2.21 1.567 4 3.5 4s3.5-1.79 3.5-4V8c0-2.21-1.567-4-3.5-4zm-9 1C7.88 5 9 6.343 9 8v6c0 1.657-1.12 3-2.5 3S4 15.657 4 14V8c0-1.657 1.12-3 2.5-3zm9 0C16.88 5 18 6.343 18 8v6c0 1.657-1.12 3-2.5 3S13 15.657 13 14V8c0-1.657 1.12-3 2.5-3zM10 17v2h2v-2z" style="color:#dedede"/></svg>
